packages/smooth_app/assets/app/release_icon.svg

<svg xmlns="http://www.w3.org/2000/svg" width="128" height="128" viewBox="0 0 128 128" fill="none">
    <rect width="128" height="128" fill="white"/>
    <path d="M29 65.5706C29 46.2392 44.6612 30.578 63.9926 30.578C83.3239 30.578 98.9851 46.2392 98.9851 65.5706H29Z" fill="#FF8C14"/>
    <path d="M90.1144 65.5706C90.1144 79.9985 78.4205 91.6924 63.9926 91.6924C49.5646 91.6924 37.8707 79.9985 37.8707 65.5706H90.1144Z" fill="white"/>
    <path d="M75.85 44.9019C76.9168 44.9019 77.7816 44.0371 77.7816 42.9703C77.7816 41.9034 76.9168 41.0386 75.85 41.0386C74.7831 41.0386 73.9183 41.9034 73.9183 42.9703C73.9183 44.0371 74.7831 44.9019 75.85 44.9019Z" fill="#8C3C00"/>
    <path d="M85.211 53.5052C86.2778 53.5052 87.1427 52.6404 87.1427 51.5736C87.1427 50.5067 86.2778 49.6419 85.211 49.6419C84.1442 49.6419 83.2794 50.5067 83.2794 51.5736C83.2794 52.6404 84.1442 53.5052 85.211 53.5052Z" fill="#8C3C00"/>
    <path d="M74.6166 55.6152C75.6835 55.6152 76.5483 54.7503 76.5483 53.6835C76.5483 52.6167 75.6835 51.7519 74.6166 51.7519C73.5498 51.7519 72.685 52.6167 72.685 53.6835C72.685 54.7503 73.5498 55.6152 74.6166 55.6152Z" fill="#8C3C00"/>
    <path d="M47.0238 96.1501L40.8128 110.994L49 114.426L55.2704 99.4636C58.0639 100.177 60.9911 100.563 64.0074 100.563C83.3091 100.563 99 84.8722 99 65.5706H90.1293C90.1293 79.9688 78.4056 91.6924 64.0074 91.6924C49.6092 91.6924 37.8707 79.9688 37.8707 65.5706H29C29 78.7058 36.2808 90.1768 47.0238 96.1501Z" fill="black"/>
    <path d="M78.4651 13C71.5854 13 65.6122 16.8336 62.5364 22.4799C64.899 24.679 66.6969 27.5022 67.6181 30.6969C75.627 28.899 81.63 21.8262 81.7786 13.312C80.7088 13.1189 79.6092 13 78.4799 13L78.4651 13Z" fill="#00641E"/>
    <path d="M50.1887 17.6211C48.8217 17.6211 47.4993 17.7697 46.2214 18.0669C48.4057 25.63 55.3893 31.1575 63.6508 31.1575C65.0178 31.1575 66.3403 31.0089 67.6181 30.7117C65.4339 23.1486 58.4502 17.6211 50.1887 17.6211Z" fill="#00961E"/>
</svg>

<svg xmlns="http://www.w3.org/2000/svg" width="128" height="128" fill="none"><path fill="#fff" d="M0 0h128v128H0z"/><path d="M29 65.57c0-19.33 15.661-34.992 34.993-34.992 19.33 0 34.992 15.661 34.992 34.993H29Z" fill="#FF8C14"/><path d="M90.114 65.57c0 14.429-11.694 26.122-26.121 26.122C49.565 91.692 37.87 80 37.87 65.571h52.243Z" fill="#fff"/><path d="M75.85 44.902a1.932 1.932 0 1 0 0-3.863 1.932 1.932 0 0 0 0 3.863ZM85.211 53.505a1.932 1.932 0 1 0 0-3.863 1.932 1.932 0 0 0 0 3.863ZM74.617 55.615a1.932 1.932 0 1 0 0-3.863 1.932 1.932 0 0 0 0 3.863Z" fill="#8C3C00"/><path d="m47.024 96.15-6.211 14.844L49 114.426l6.27-14.962a35.27 35.27 0 0 0 8.737 1.099C83.31 100.563 99 84.873 99 65.571h-8.87c0 14.398-11.724 26.121-26.123 26.121-14.398 0-26.136-11.723-26.136-26.121H29c0 13.135 7.28 24.606 18.024 30.58Z" fill="#000"/><path d="M78.465 13c-6.88 0-12.853 3.834-15.929 9.48 2.363 2.199 4.16 5.022 5.082 8.217 8.009-1.798 14.012-8.87 14.16-17.385A18.533 18.533 0 0 0 78.48 13h-.015Z" fill="#00641E"/><path d="M50.189 17.621c-1.367 0-2.69.149-3.968.446 2.185 7.563 9.168 13.09 17.43 13.09 1.367 0 2.69-.148 3.967-.445-2.184-7.563-9.168-13.09-17.43-13.09Z" fill="#00961E"/></svg>
